X:1
T:[ID 2-72a]
T:[ID 2-72a]
T:Bezeichnung standardisiert: Menuett Menuet 1 Violino Primo No 2. In dieser Quelle auch als: Menuetto
T:Urheber unbekannt Erstbeleg: 1767 (Datum in der schriftlichen Quelle) Datum in der hier transkribierten schriftlichen Quelle: 1792
C:Urheber unbekannt
C:Erstbeleg: 1767 (Datum in der schriftlichen Quelle)
C:Datum in der hier transkribierten schriftlichen Quelle: 1792
%%score ( 1 2 ) 3
L:1/8
M:3/4
K:G
V:1 treble nm="Primo"
V:2 treble 
V:3 treble nm="Secondo"
V:1
 G2 G2 G2 |{f} g2 Tg4 | bagfed | Tc4 B2 | A2 A2 A2 | AB Tc4 | Bd c2 B2 | BA A4 :: BcdBcd | %9
 e2 edcB | ABcBAG | TF2 EF D2 | G2 G2 G2 | g2 Tg4 | (3edc c2 cA | A2 G4 :| %16
V:2
 x6 | x6 | x6 | x6 | D2 D2 D2 | x6 | x6 | x6 :: x6 | x6 | x6 | x6 | x6 | x6 | x6 | x6 :| %16
V:3
 !fermata!B,2 B,2 B,2 | B2 TB4 | gfedcB | TA4 G2 | F2 F2 F2 | FG TA4 | GB A2 G2 | GF F4 :: GABGAB | %9
 c2 cBAG | FGAGFE | D2 CD B,2 | B,2 B,2 B,2 | B2 TB4 | (3cBA G2 AF | C2 B,4 :| %16

